X:422
T:Come West Along the Road
R:reel
S:Session
H:See also #432, in A. This version is also played in A.
H:1st part similar to "Over the Moor to Peggy", #710
D:Arcady: Many Happy Returns
D:Noel Hill & Tony McMahon: \'I gCnoc na Gra\'i
Z:id:hn-reel-422
M:C|
K:A             
~e2cA eAcA|Bcde feaf|~e2cA eAcA|1 Bcde fecf:|2 Bcde fece||
|:~a2ba faea|(3fga ea fece|1~a2ba faec|Bcde fece:|2 abc'a fgaf|efab c'baf||
